media/img/firefox/mobile/protocol/theme-yellow.svg

<svg width="245" height="295" xmlns="http://www.w3.org/2000/svg"><g fill="none" fill-rule="evenodd"><path d="M283.559 512.354H118.325c-13.86 0-25.093-11.236-25.093-25.094V68.409c0-13.86 11.233-25.095 25.093-25.095h165.233c13.859 0 25.093 11.236 25.093 25.095v418.85c0 13.86-11.234 25.095-25.093 25.095" fill="#FFE55B" mask="url(#d)" transform="translate(-78 -29)"/><path d="M238.458 358.411c-14.702 0-28.663-8.678-34.693-23.087-8.018-19.152 1.009-41.177 20.16-49.194l318.7-133.415c19.156-8.017 41.177 1.01 49.192 20.16 8.018 19.151-1.009 41.178-20.16 49.195L252.959 355.485a37.494 37.494 0 0 1-14.501 2.926" fill="#FF7139" mask="url(#h)" transform="translate(-78 -29)"/><path d="M173.987 263.777c-31.368 0-56.8-25.431-56.8-56.801 0-38.954-31.692-70.644-70.644-70.644-38.953 0-70.645 31.69-70.645 70.644 0 31.37-25.431 56.801-56.8 56.801-31.371 0-56.801-25.431-56.801-56.801 0-101.594 82.65-184.247 184.246-184.247 101.594 0 184.246 82.653 184.246 184.247 0 31.37-25.43 56.801-56.802 56.801" fill="#FF2889" mask="url(#j)" transform="translate(-78 -29)"/><path d="M609.375 186.898c-11.276 34.442-48.342 53.224-82.786 41.946l-237.05-77.615c-34.443-11.277-53.224-48.343-41.947-82.785l77.614-237.05c11.278-34.443 48.344-53.225 82.786-41.948 34.444 11.278 53.226 48.344 41.947 82.786L392.744 46.916l174.684 57.197c34.444 11.277 53.224 48.343 41.947 82.786" fill="#971DB5" mask="url(#l)" transform="translate(-78 -29)"/></g></svg>

<?xml version="1.0" encoding="utf-8"?>
<svg width="245" height="295" viewBox="0 0 245 295" xmlns="http://www.w3.org/2000/svg">
  <defs>
    <path id="a" d="M0 0h400v323.308H0z"/>
    <path id="c" d="M0 0h244.516v497.45H0z"/>
    <path d="M26.492.134c-13.86 0-25.094 11.234-25.094 25.095v418.85c0 13.86 11.234 25.095 25.094 25.095h165.233c13.86 0 25.095-11.234 25.095-25.094V25.229c0-13.86-11.235-25.095-25.095-25.095" id="e"/>
    <path d="M25.492.134C11.632.134.398 11.368.398 25.229v418.85c0 13.86 11.234 25.095 25.094 25.095h165.233c13.86 0 25.095-11.234 25.095-25.094V25.229c0-13.86-11.235-25.095-25.095-25.095" id="g"/>
    <path d="M25.492.134C11.632.134.398 11.368.398 25.229v418.85c0 13.86 11.234 25.095 25.094 25.095h165.233c13.86 0 25.095-11.234 25.095-25.094V25.229c0-13.86-11.235-25.095-25.095-25.095" id="i"/>
    <path d="M26.492.134c-13.86 0-25.094 11.234-25.094 25.095v418.85c0 13.86 11.234 25.095 25.094 25.095h165.233c13.86 0 25.095-11.234 25.095-25.094V25.229c0-13.86-11.235-25.095-25.095-25.095" id="k"/>
  </defs>
  <g transform="translate(-78 -29)" fill="none" fill-rule="evenodd">
    <path d="M 283.559 512.354 L 118.325 512.354 C 104.465 512.354 93.232 501.118 93.232 487.26 L 93.232 68.409 C 93.232 54.549 104.465 43.314 118.325 43.314 L 283.558 43.314 C 297.417 43.314 308.651 54.55 308.651 68.409 L 308.651 487.259 C 308.651 501.119 297.417 512.354 283.558 512.354" fill="#FFE55B" mask="url(#d)"/>
    <path d="M 238.458 358.411 C 223.756 358.411 209.795 349.733 203.765 335.324 C 195.747 316.172 204.774 294.147 223.925 286.13 L 542.625 152.715 C 561.781 144.698 583.802 153.725 591.817 172.875 C 599.835 192.026 590.808 214.053 571.657 222.07 L 252.959 355.485 C 248.368 357.414 243.438 358.408 238.458 358.411" fill="#FF7139" mask="url(#h)"/>
    <path d="M 173.987 263.777 C 142.619 263.777 117.187 238.346 117.187 206.976 C 117.187 168.022 85.495 136.332 46.543 136.332 C 7.59 136.332 -24.102 168.022 -24.102 206.976 C -24.102 238.346 -49.533 263.777 -80.902 263.777 C -112.273 263.777 -137.703 238.346 -137.703 206.976 C -137.703 105.382 -55.053 22.729 46.543 22.729 C 148.137 22.729 230.789 105.382 230.789 206.976 C 230.789 238.346 205.359 263.777 173.987 263.777" fill="#FF2889" mask="url(#j)"/>
    <path d="M 609.375 186.898 C 598.099 221.34 561.033 240.122 526.589 228.844 L 289.539 151.229 C 255.096 139.952 236.315 102.886 247.592 68.444 L 325.206 -168.606 C 336.484 -203.049 373.55 -221.831 407.992 -210.554 C 442.436 -199.276 461.218 -162.21 449.939 -127.768 L 392.744 46.916 L 567.428 104.113 C 601.872 115.39 620.652 152.456 609.375 186.899" fill="#971DB5" mask="url(#l)"/>
  </g>
</svg>
